source/assets/ui/themes/light/update.svg

<?xml version="1.0" encoding="UTF-8" standalone="no"?>
<!-- Created with Inkscape (http://www.inkscape.org/) -->

<svg
   width="24"
   height="24"
   viewBox="0 0 24 24"
   version="1.1"
   id="SVGRoot"
   xmlns="http://www.w3.org/2000/svg"
   xmlns:svg="http://www.w3.org/2000/svg"
   xmlns:rdf="http://www.w3.org/1999/02/22-rdf-syntax-ns#"
   xmlns:cc="http://creativecommons.org/ns#"
   xmlns:dc="http://purl.org/dc/elements/1.1/">
  <defs
     id="defs1725">
    <clipPath
       id="clipPath4439-1-0">
      <path
         d="m 76.965,496.958 h 257.093 v 52.963 H 76.965 Z"
         id="path4441-7-0" />
    </clipPath>
  </defs>
  <g
     id="layer1"
     transform="translate(-77.139297,-30.827057)"
     style="fill:#3ba55d;fill-opacity:1">
    <path
       id="path2399-9-3"
       style="color:#000000;fill:#3ba55d;stroke-dashoffset:9.6;-inkscape-stroke:none;paint-order:markers stroke fill;fill-opacity:1"
       d="M 11 4.9980469 L 11 12.519531 L 9.1757812 11.134766 L 7.96875 12.728516 L 12 15.787109 L 16.033203 12.728516 L 14.824219 11.134766 L 13 12.519531 L 13 4.9980469 L 11 4.9980469 z M 5 15.398438 L 5 18.998047 L 19 18.998047 L 19 15.398438 L 17 15.398438 L 17 16.998047 L 7 16.998047 L 7 15.398438 L 5 15.398438 z "
       transform="translate(77.139297,30.827057)" />
  </g>
  <metadata
     id="metadata2103">
    <rdf:RDF>
      <cc:Work
         rdf:about="">
        <dc:creator>
          <cc:Agent>
            <dc:title>NinStar</dc:title>
          </cc:Agent>
        </dc:creator>
      </cc:Work>
    </rdf:RDF>
  </metadata>
</svg>

<?xml version="1.0" encoding="UTF-8"?>
<svg id="a" width="24" height="24" version="1.1" viewBox="0 0 24 24" xmlns="http://www.w3.org/2000/svg" xmlns:cc="http://creativecommons.org/ns#" xmlns:dc="http://purl.org/dc/elements/1.1/" xmlns:rdf="http://www.w3.org/1999/02/22-rdf-syntax-ns#"><g transform="translate(-77.139 -30.827)" fill="#3ba55d"><path transform="translate(77.139 30.827)" d="m11 4.998v7.5215l-1.8242-1.3848-1.207 1.5938 4.0312 3.0586 4.0332-3.0586-1.209-1.5938-1.8242 1.3848v-7.5215h-2zm-6 10.4v3.5996h14v-3.5996h-2v1.5996h-10v-1.5996h-2z" color="#000000" fill="#3ba55d" stroke-dashoffset="9.6" style="-inkscape-stroke:none;paint-order:markers stroke fill"/></g><metadata><rdf:RDF><cc:Work rdf:about=""><dc:creator><cc:Agent><dc:title>NinStar</dc:title></cc:Agent></dc:creator></cc:Work></rdf:RDF></metadata></svg>
